img/parceiros/caravan.svg

<svg width="140" height="32" viewBox="0 0 140 32" fill="none" xmlns="http://www.w3.org/2000/svg">
<path d="M11.394 19.1469V23.4299C11.394 25.5714 10.274 26.3436 8.494 26.3436C6.714 26.3436 5.595 25.5714 5.595 23.4299V7.23874C5.595 5.09726 6.715 4.28295 8.495 4.28295C10.275 4.28295 11.394 5.09726 11.394 7.23874V10.4514H16.684V7.53853C16.684 2.74105 13.835 0 8.342 0C2.848 0 0 2.74105 0 7.53853V23.1301C0 27.9276 2.848 30.6695 8.342 30.6695C13.835 30.6695 16.684 27.9276 16.684 23.1301V19.1469H11.394ZM32.503 0.342737L38.2 30.3267H32.554L31.587 24.8867H24.721L23.754 30.3267H18.617L24.314 0.342737H32.503ZM28.078 5.65389L25.433 20.8177H30.824L28.18 5.65305H28.079L28.078 5.65389ZM58.19 30.3267H52.493C52.188 29.5554 51.984 29.0838 51.984 26.6425V21.9309C51.984 19.1469 50.865 18.1187 48.322 18.1187H46.389V30.3267H40.794V0.342737H49.238C55.036 0.342737 57.528 2.61305 57.528 7.23958V9.59495C57.528 12.6787 56.358 14.6493 53.866 15.6345C56.664 16.7048 57.579 18.9322 57.579 22.0598V26.6855C57.579 28.1423 57.63 29.2126 58.189 30.3267H58.19ZM49.085 4.62568H46.389V13.8358H48.576C50.662 13.8358 51.933 13.0653 51.933 10.6661V7.71032C51.933 5.56884 51.069 4.62653 49.085 4.62653V4.62568ZM75.242 0.342737L80.939 30.3267H75.293L74.327 24.8867H67.46L66.494 30.3267H61.356L67.053 0.342737H75.243H75.242ZM70.817 5.65389L68.172 20.8177H73.564L70.919 5.65305H70.817V5.65389ZM86.115 0.342737H80.469L85.962 30.3267H94.304L99.797 0.342737H94.66L90.438 24.8H90.336L86.115 0.342737ZM113.213 0.342737L118.91 30.3267H113.264L112.298 24.8867H105.431L104.464 30.3267H99.327L105.024 0.342737H113.213ZM108.788 5.65389L106.143 20.8177H111.535L108.89 5.65305H108.788V5.65389ZM134.252 30.3267H140V0.342737H135.015V18.2897H134.913L129.267 0.342737H122.248V30.3267H127.284V8.60884H127.385L134.252 30.3267Z" fill="#9C9C9C"/>
</svg>

<svg width="140" height="32" fill="none" xmlns="http://www.w3.org/2000/svg"><path d="M11.394 19.147v4.283c0 2.141-1.12 2.914-2.9 2.914-1.78 0-2.899-.773-2.899-2.914V7.239c0-2.142 1.12-2.956 2.9-2.956 1.78 0 2.899.814 2.899 2.956v3.212h5.29V7.54C16.684 2.74 13.835 0 8.342 0 2.848 0 0 2.741 0 7.539V23.13c0 4.798 2.848 7.54 8.342 7.54 5.493 0 8.342-2.742 8.342-7.54v-3.983h-5.29ZM32.503.343 38.2 30.327h-5.646l-.967-5.44h-6.866l-.967 5.44h-5.137L24.314.343h8.189Zm-4.425 5.31-2.645 15.165h5.391L28.18 5.653H28.078ZM58.19 30.328h-5.697c-.305-.772-.509-1.243-.509-3.685v-4.711c0-2.784-1.119-3.812-3.662-3.812h-1.933v12.208h-5.595V.343h8.444c5.798 0 8.29 2.27 8.29 6.897v2.355c0 3.084-1.17 5.054-3.662 6.04 2.798 1.07 3.713 3.297 3.713 6.425v4.626c0 1.456.051 2.527.61 3.64h.001ZM49.085 4.626h-2.696v9.21h2.187c2.086 0 3.357-.77 3.357-3.17V7.71c0-2.141-.864-3.083-2.848-3.083v-.001ZM75.242.343l5.697 29.984h-5.646l-.966-5.44H67.46l-.966 5.44h-5.138L67.053.343h8.19-.001Zm-4.425 5.31-2.645 15.165h5.392L70.919 5.653h-.102ZM86.115.344h-5.646l5.493 29.984h8.342L99.797.343H94.66L90.438 24.8h-.102L86.115.343Zm27.098 0 5.697 29.984h-5.646l-.966-5.44h-6.867l-.967 5.44h-5.137L105.024.343h8.189Zm-4.425 5.31-2.645 15.165h5.392L108.89 5.653h-.102Zm25.464 24.674H140V.343h-4.985V18.29h-.102L129.267.343h-7.019v29.984h5.036V8.609h.101l6.867 21.718Z" fill="#9C9C9C"/></svg>
